X: 1
T: My Sunny Valentine
Z: gian marco
S: https://thesession.org/tunes/15428#setting28868
R: reel
M: 4/4
L: 1/8
K: Emin
B2Ac BAGF | EG~G2 FEDC | B,EED EFGA | BAcA BAGA |
B2Ac BAGF | EG~G2 FEDC | B,EED EFGA | BAGF EFGA :|:
Be~e3 Begf | eB~B2 cBAc | BEED EFGA | BAcA BAGA |
Be~e3 gfe^d | eB~B2 cBAc | BEED EFGA | BAGF EFGA :|
